src/assets/svg/icons/fa/nuevos/classic/duotone/bridge-circle-check classic duotone.svg

<svg xmlns="http://www.w3.org/2000/svg" viewBox="0 0 640 512"><!--! Font Awesome Pro 6.4.0 by @fontawesome - https://fontawesome.com License - https://fontawesome.com/license (Commercial License) Copyright 2023 Fonticons, Inc. --><defs><style>.fa-secondary{opacity:.4}</style></defs><path class="fa-primary" d="M496 512a144 144 0 1 0 0-288 144 144 0 1 0 0 288zm67.3-164.7l-72 72c-6.2 6.2-16.4 6.2-22.6 0l-40-40c-6.2-6.2-6.2-16.4 0-22.6s16.4-6.2 22.6 0L480 385.4l60.7-60.7c6.2-6.2 16.4-6.2 22.6 0s6.2 16.4 0 22.6z"/><path class="fa-secondary" d="M32 64c0-17.7 14.3-32 32-32H576c17.7 0 32 14.3 32 32s-14.3 32-32 32H536v64h72v72.2C577.6 207.1 538.5 192 496 192c-69.1 0-128.9 39.8-157.7 97.7c-5.9-1.1-12-1.7-18.3-1.7c-53 0-96 43-96 96v64c0 17.7-14.3 32-32 32H160c-17.7 0-32-14.3-32-32V384c0-53-43-96-96-96V160h72V96H64C46.3 96 32 81.7 32 64zM408 96v64h80V96H408zm-48 64V96H280v64h80zM152 96v64h80V96H152z"/></svg>

<svg xmlns="http://www.w3.org/2000/svg" viewBox="0 0 640 512"><defs><style>.fa-secondary{opacity:.4}</style></defs><path class="fa-primary" d="M352 368C352 288.5 416.5 224 496 224C575.5 224 640 288.5 640 368C640 447.5 575.5 512 496 512C416.5 512 352 447.5 352 368zM563.3 347.3C569.6 341.1 569.6 330.9 563.3 324.7C557.1 318.4 546.9 318.4 540.7 324.7L480 385.4L451.3 356.7C445.1 350.4 434.9 350.4 428.7 356.7C422.4 362.9 422.4 373.1 428.7 379.3L468.7 419.3C474.9 425.6 485.1 425.6 491.3 419.3L563.3 347.3z"/><path class="fa-secondary" d="M32 64C32 46.33 46.33 32 64 32H576C593.7 32 608 46.33 608 64C608 81.67 593.7 96 576 96H536V160H608V232.2C577.6 207.1 538.5 192 496 192C426.9 192 367.1 231.8 338.3 289.7C332.4 288.6 326.3 288 320 288C266.1 288 224 330.1 224 384V448C224 465.7 209.7 480 192 480H160C142.3 480 128 465.7 128 448V384C128 330.1 85.02 288 32 288V160H104V96H64C46.33 96 32 81.67 32 64V64zM408 160H488V96H408V160zM360 160V96H280V160H360zM152 160H232V96H152V160z"/></svg>
